X:1
T:Lnsboda-schottis
C:Eric Welander
R:Schottis
Z:2008-11-27, Patrik Mnsson
O:Lnsboda, Skne
M:2/4
L:1/16
K:D
|: (A>F)(Ad) (B>G)(Bd) | (AFAd) f2f2 | g2 (ge) (cA)(Bc) |
(de)(fe) A2 z2 | (A>F)(Ad) (B>G)(Bd) | (AFAB) f2f2 | g2 (ge) 
c2 (Bc) |
